bk/imgapp/glyphixcube.cube
TITLE "Generated by GuoyuanCode Glyphix"
LUT_3D_SIZE 5
0.00000000 0.00000000 0.00000000 
0.18135300 0.00000000 0.00000000 
0.66729200 0.00039674 0.03561460 
0.94016900 0.00186160 0.09564360 
0.94024600 0.00193790 0.10351700 
0.00062562 0.17288500 0.00062562 
0.15959400 0.17264100 0.00303655 
0.66855900 0.13460000 0.01538110 
0.94000200 0.00169375 0.07714960 
0.94007800 0.00177005 0.08642710 
0.02023350 0.64612800 0.02023350 
0.02021820 0.64562400 0.02021820 
0.61294000 0.64988200 0.03114370 
0.97352600 0.63947500 0.03521780 
0.97331200 0.63659100 0.03500420 
0.03202870 0.97032100 0.03201340 
0.03202870 0.97032100 0.03201340 
0.36234100 0.97897300 0.04066530 
0.97795100 0.99035600 0.05206380 
0.99067700 0.99066200 0.05236900 
0.03202870 0.97032100 0.03201340 
0.03202870 0.97032100 0.03201340 
0.26962700 0.97666900 0.03836120 
0.96064700 0.99023400 0.05194170 
0.99067700 0.99066200 0.05236900 
0.00000000 0.00000000 0.15150700 
0.17633300 0.00000000 0.15507700 
0.66697200 0.00128176 0.17286900 
0.94081000 0.00251774 0.19656700 
0.94085600 0.00254826 0.20025900 
0.00076295 0.15297200 0.14915700 
0.15233100 0.15233100 0.15233100 
0.66689600 0.10518000 0.16830700 
0.94074900 0.00244144 0.18831200 
0.94078000 0.00248722 0.19218700 
0.01994350 0.64254200 0.01994350 
0.01995880 0.64205400 0.01995880 
0.61139900 0.64631100 0.03096060 
0.97314400 0.63550800 0.03483630 
0.97299200 0.63260900 0.03469900 
0.03202870 0.97032100 0.03201340 
0.03202870 0.97032100 0.03201340 
0.35942600 0.97886600 0.04055850 
0.97723400 0.99034100 0.05204850 
0.99067700 0.99066200 0.05236900 
0.03202870 0.97032100 0.03201340 
0.03202870 0.97032100 0.03201340 
0.26497300 0.97654700 0.03823910 
0.95983800 0.99021900 0.05192650 
0.99067700 0.99066200 0.05236900 
0.00000000 0.00000000 0.58321500 
0.04296940 0.00000000 0.58419200 
0.65384900 0.00349432 0.59418600 
0.94299200 0.00469978 0.60015300 
0.94299200 0.00469978 0.60103800 
0.00000000 0.00000000 0.58124700 
0.00000000 0.00000000 0.58144500 
0.64846300 0.00340276 0.59212600 
0.94299200 0.00468452 0.59818400 
0.94299200 0.00468452 0.59916100 
0.02232390 0.59235500 0.58133800 
0.02230870 0.59174500 0.58150600 
0.59473600 0.59473600 0.59473600 
0.97541800 0.58214700 0.60401300 
0.97523500 0.57874400 0.60480700 
0.03715570 0.97546400 0.53147200 
0.03717100 0.97546400 0.53171600 
0.31790600 0.98289500 0.54213800 
0.97302200 0.99551400 0.56083000 
0.99578900 0.99578900 0.56215800 
0.03701840 0.97531100 0.51848600 
0.03701840 0.97532600 0.51868500 
0.18728900 0.97918700 0.52564300 
0.95491000 0.99499500 0.54779900 
0.99563600 0.99563600 0.54959900 
0.00000000 0.00000000 0.93153300 
0.00000000 0.00000000 0.93162400 
0.62037100 0.00433356 0.94096300 
0.94404500 0.00575265 0.94404500 
0.94404500 0.00575265 0.94404500 
0.00000000 0.00000000 0.93066300 
0.00000000 0.00000000 0.93075500 
0.61432800 0.00430304 0.93992500 
0.94404500 0.00575265 0.94395400 
0.94404500 0.00575265 0.94404500 
0.01792940 0.44589900 0.93885700 
0.01789880 0.44509000 0.93891800 
0.54496100 0.44205400 0.94850100 
0.96754400 0.41930300 0.95413100 
0.96728500 0.41422100 0.95437600 
0.03831540 0.94622700 0.92971700 
0.03830010 0.94590700 0.92979300 
0.15223900 0.94483900 0.93394400 
0.95291100 0.95291100 0.95291100 
0.99617000 0.95185800 0.95382600 
0.03979550 0.97808800 0.92576500 
0.03979550 0.97808800 0.92585600 
0.03979550 0.97810300 0.92716900 
0.93655300 0.99748200 0.94909600 
0.99838300 0.99838300 0.95048400 
0.00000000 0.00000000 0.93450800 
0.00000000 0.00000000 0.93450800 
0.61355000 0.00430304 0.94259600 
0.94404500 0.00575265 0.94404500 
0.94404500 0.00575265 0.94404500 
0.00000000 0.00000000 0.93450800 
0.00000000 0.00000000 0.93450800 
0.60769100 0.00421149 0.94251900 
0.94404500 0.00575265 0.94404500 
0.94404500 0.00575265 0.94404500 
0.01632720 0.41117000 0.95463500 
0.01628140 0.41026900 0.95458900 
0.53479800 0.40550900 0.96266100 
0.96519400 0.37863700 0.96519400 
0.96464500 0.37261000 0.96464500 
0.03797970 0.93481300 0.97628700 
0.03796440 0.93449300 0.97627200 
0.07553220 0.93159400 0.97720300 
0.94862300 0.94120700 0.99522400 
0.99594100 0.94033700 0.99594100 
0.04003970 0.97834700 0.97422700 
0.04003970 0.97834700 0.97428900 
0.04003970 0.97834700 0.97537200 
0.93293700 0.99784800 0.99736000 
0.99876400 0.99876400 0.99876400 
