bk/imgapp/glyphixcube.cube
TITLE "Generated by GuoyuanCode Glyphix"
LUT_3D_SIZE 65
0.00000000 0.00000000 0.00000000 
0.00000000 0.00000000 0.00000000 
0.00784314 0.00000000 0.00000000 
0.01692230 0.00000000 0.00000000 
0.02609290 0.00000000 0.00000000 
0.03665220 0.00000000 0.00000000 
0.04711990 0.00000000 0.00000000 
0.05737390 0.00000000 0.00000000 
0.06791790 0.00000000 0.00000000 
0.07895020 0.00000000 0.00000000 
0.08990620 0.00000000 0.00000000 
0.10290700 0.00000000 0.00000000 
0.11587700 0.00000000 0.00000000 
0.13089200 0.00000000 0.00000000 
0.14615100 0.00000000 0.00000000 
0.16356100 0.00000000 0.00000000 
0.18135300 0.00000000 0.00000000 
0.20268600 0.00000000 0.00000000 
0.22403300 0.00000000 0.00000000 
0.25098000 0.00000000 0.00000000 
0.27769900 0.00000000 0.00090028 
0.30817100 0.00000000 0.00270085 
0.33865900 0.00000000 0.00448615 
0.37109900 0.00000000 0.00680552 
0.40346400 0.00000000 0.00906386 
0.43636200 0.00000000 0.01164260 
0.46936800 0.00000000 0.01431300 
0.50220500 0.00000000 0.01745630 
0.53537800 0.00000000 0.02052340 
0.56852100 0.00000000 0.02429240 
0.60154100 0.00001526 0.02767990 
0.63431800 0.00022888 0.03178450 
0.66729200 0.00039674 0.03561460 
0.69976300 0.00054933 0.04020750 
0.73229600 0.00068666 0.04458690 
0.76418700 0.00082399 0.04940870 
0.79597200 0.00096132 0.05447470 
0.82708500 0.00106813 0.05932710 
0.85816700 0.00117494 0.06434730 
0.88740400 0.00137331 0.06906230 
0.91668600 0.00166323 0.07380790 
0.92829800 0.00155642 0.07756160 
0.94004700 0.00173953 0.08140690 
0.94006300 0.00175479 0.08450450 
0.94010800 0.00180056 0.08738840 
0.94010800 0.00181582 0.08981460 
0.94013900 0.00183108 0.09224080 
0.94013900 0.00183108 0.09404140 
0.94016900 0.00186160 0.09564360 
0.94018500 0.00187686 0.09697110 
0.94018500 0.00187686 0.09831390 
0.94020000 0.00189212 0.09916840 
0.94020000 0.00189212 0.10002300 
0.94020000 0.00190738 0.10064900 
0.94021500 0.00190738 0.10125900 
0.94021500 0.00190738 0.10159500 
0.94021500 0.00190738 0.10188400 
0.94021500 0.00192264 0.10202200 
0.94023000 0.00192264 0.10217400 
0.94023000 0.00192264 0.10228100 
0.94023000 0.00192264 0.10238800 
0.94023000 0.00192264 0.10257100 
0.94023000 0.00193790 0.10275400 
0.94024600 0.00193790 0.10313600 
0.94024600 0.00193790 0.10351700 
0.00000000 0.00000000 0.00000000 
0.00000000 0.00000000 0.00000000 
0.00613413 0.00000000 0.00000000 
0.01544210 0.00000000 0.00000000 
0.02465860 0.00000000 0.00000000 
0.03494320 0.00000000 0.00000000 
0.04556340 0.00000000 0.00000000 
0.05635160 0.00000000 0.00000000 
0.06669720 0.00000000 0.00000000 
0.07808040 0.00000000 0.00000000 
0.08926530 0.00000000 0.00000000 
0.10214400 0.00000000 0.00000000 
0.11545000 0.00000000 0.00000000 
0.13072400 0.00000000 0.00000000 
0.14569300 0.00000000 0.00000000 
0.16327200 0.00000000 0.00000000 
0.18088000 0.00000000 0.00000000 
0.20248700 0.00000000 0.00000000 
0.22386500 0.00000000 0.00000000 
0.25093500 0.00000000 0.00000000 
0.27725600 0.00000000 0.00030518 
0.30777400 0.00000000 0.00202945 
0.33832300 0.00000000 0.00381476 
0.37082500 0.00000000 0.00610361 
0.40320400 0.00000000 0.00842298 
0.43611800 0.00000000 0.01092550 
0.46913900 0.00000000 0.01361100 
0.50199100 0.00000000 0.01687650 
0.53519500 0.00000000 0.01983670 
0.56833800 0.00000000 0.02357520 
0.60141900 0.00001526 0.02696270 
0.63416500 0.00022888 0.03108260 
0.66714000 0.00039674 0.03494320 
0.69961100 0.00053407 0.03952090 
0.73214300 0.00068666 0.04386970 
0.76405000 0.00080873 0.04882890 
0.79589500 0.00094606 0.05375750 
0.82699300 0.00106813 0.05865570 
0.85806100 0.00115969 0.06376750 
0.88734300 0.00138857 0.06848250 
0.91662500 0.00166323 0.07322800 
0.92828300 0.00154116 0.07701230 
0.94004700 0.00173953 0.08088810 
0.94006300 0.00175479 0.08400090 
0.94009300 0.00178531 0.08694590 
0.94010800 0.00181582 0.08934160 
0.94012400 0.00183108 0.09176780 
0.94013900 0.00183108 0.09359880 
0.94016900 0.00186160 0.09521630 
0.94016900 0.00187686 0.09654380 
0.94018500 0.00187686 0.09788660 
0.94018500 0.00189212 0.09875640 
0.94020000 0.00189212 0.09964140 
0.94020000 0.00189212 0.10023700 
0.94020000 0.00189212 0.10083200 
0.94021500 0.00190738 0.10116700 
0.94021500 0.00190738 0.10150300 
0.94021500 0.00190738 0.10168600 
0.94021500 0.00190738 0.10183900 
0.94021500 0.00192264 0.10197600 
0.94023000 0.00192264 0.10209800 
0.94023000 0.00192264 0.10225100 
0.94023000 0.00192264 0.10238800 
0.94023000 0.00193790 0.10273900 
0.94024600 0.00193790 0.10309000 
0.00000000 0.00625620 0.00000000 
0.00000000 0.00630198 0.00000000 
0.00415045 0.00598154 0.00000000 
0.01339740 0.00593576 0.00000000 
0.02270540 0.00588998 0.00000000 
0.03334100 0.00585946 0.00000000 
0.04354920 0.00561532 0.00000000 
0.05455100 0.00553903 0.00000000 
0.06538490 0.00552377 0.00000000 
0.07670710 0.00524910 0.00000000 
0.08790720 0.00512703 0.00000000 
0.10124400 0.00483711 0.00000000 
0.11451900 0.00453193 0.00000000 
0.12968600 0.00379950 0.00000000 
0.14508300 0.00331121 0.00000000 
0.16267600 0.00241093 0.00000000 
0.18049900 0.00151064 0.00000000 
0.20213600 0.00012207 0.00000000 
0.22336200 0.00000000 0.00000000 
0.25037000 0.00000000 0.00000000 
0.27681400 0.00000000 0.00000000 
0.30737800 0.00000000 0.00135805 
0.33798700 0.00000000 0.00314336 
0.37052000 0.00000000 0.00541695 
0.40296000 0.00000000 0.00770581 
0.43587400 0.00000000 0.01020830 
0.46891000 0.00000000 0.01290910 
0.50180800 0.00000000 0.01617460 
0.53502700 0.00000000 0.01915010 
0.56817000 0.00000000 0.02285800 
0.60129700 0.00000000 0.02623030 
0.63401200 0.00021363 0.03039600 
0.66697200 0.00039674 0.03433280 
0.69945800 0.00053407 0.03883420 
0.73199100 0.00067140 0.04313730 
0.76391200 0.00079347 0.04818800 
0.79580400 0.00093080 0.05302510 
0.82691700 0.00105287 0.05798430 
0.85796900 0.00115969 0.06315710 
0.88728200 0.00140383 0.06790260 
0.91656400 0.00164797 0.07264820 
0.92825200 0.00154116 0.07646300 
0.94003200 0.00173953 0.08035400 
0.94006300 0.00175479 0.08351260 
0.94007800 0.00178531 0.08657970 
0.94010800 0.00180056 0.08885330 
0.94012400 0.00181582 0.09129470 
0.94013900 0.00183108 0.09314110 
0.94015400 0.00184634 0.09488060 
0.94016900 0.00187686 0.09611660 
0.94018500 0.00187686 0.09744410 
0.94018500 0.00187686 0.09835970 
0.94020000 0.00189212 0.09925990 
0.94020000 0.00189212 0.09983980 
0.94020000 0.00189212 0.10040400 
0.94020000 0.00190738 0.10074000 
0.94020000 0.00190738 0.10106100 
0.94021500 0.00190738 0.10125900 
0.94021500 0.00190738 0.10144200 
0.94021500 0.00190738 0.10164000 
0.94021500 0.00190738 0.10180800 
0.94021500 0.00190738 0.10194600 
0.94023000 0.00192264 0.10209800 
0.94023000 0.00192264 0.10235800 
0.94023000 0.00193790 0.10266300 
0.00000000 0.01443500 0.00000000 
0.00000000 0.01443500 0.00000000 
0.00230411 0.01432820 0.00000000 
0.01139850 0.01409930 0.00000000 
0.02047760 0.01406880 0.00000000 
0.03111310 0.01403830 0.00000000 
0.04171820 0.01400780 0.00000000 
0.05255210 0.01371790 0.00000000 
0.06378270 0.01365680 0.00000000 
0.07536430 0.01356530 0.00000000 
0.08712900 0.01342790 0.00000000 
0.10022100 0.01292440 0.00000000 
0.11354200 0.01268020 0.00000000 
0.12901500 0.01213090 0.00000000 
0.14438100 0.01149000 0.00000000 
0.16223400 0.01072710 0.00000000 
0.17999500 0.00965896 0.00000000 
0.20172400 0.00827039 0.00000000 
0.22305600 0.00669871 0.00000000 
0.25018700 0.00485237 0.00000000 
0.27692100 0.00280766 0.00000000 
0.30757600 0.00128176 0.00132753 
0.33804800 0.00000000 0.00282292 
0.37058100 0.00000000 0.00503548 
0.40265500 0.00000000 0.00694286 
0.43559900 0.00000000 0.00953689 
0.46869600 0.00000000 0.01217670 
0.50161000 0.00000000 0.01544210 
0.53484400 0.00000000 0.01840240 
0.56795600 0.00000000 0.02209510 
0.60111400 0.00000000 0.02557410 
0.63382900 0.00021363 0.02960250 
0.66681900 0.00036622 0.03367670 
0.69932100 0.00053407 0.03804070 
0.73188400 0.00067140 0.04238960 
0.76377500 0.00079347 0.04742500 
0.79568200 0.00093080 0.05226210 
0.82679500 0.00103761 0.05726710 
0.85786200 0.00115969 0.06248570 
0.88719000 0.00140383 0.06727700 
0.91645700 0.00164797 0.07215990 
0.92820600 0.00154116 0.07586790 
0.94003200 0.00172427 0.07978940 
0.94006300 0.00175479 0.08296330 
0.94007800 0.00177005 0.08612190 
0.94010800 0.00180056 0.08836500 
0.94012400 0.00181582 0.09080640 
0.94013900 0.00183108 0.09265280 
0.94015400 0.00184634 0.09448390 
0.94016900 0.00186160 0.09559780 
0.94018500 0.00187686 0.09692530 
0.94018500 0.00187686 0.09785610 
0.94020000 0.00189212 0.09878690 
0.94020000 0.00189212 0.09935150 
0.94020000 0.00189212 0.09991610 
0.94020000 0.00189212 0.10025200 
0.94020000 0.00190738 0.10058700 
0.94020000 0.00189212 0.10078600 
0.94020000 0.00190738 0.10096900 
0.94021500 0.00190738 0.10116700 
0.94021500 0.00190738 0.10135000 
0.94021500 0.00190738 0.10154900 
0.94021500 0.00190738 0.10173200 
0.94021500 0.00192264 0.10199100 
0.94023000 0.00192264 0.10225100 
0.00000000 0.02259860 0.00000000 
0.00000000 0.02255280 0.00000000 
0.00007630 0.02246130 0.00000000 
0.00938430 0.02244600 0.00000000 
0.01857020 0.02232390 0.00000000 
0.02890060 0.02220190 0.00000000 
0.03953610 0.02217140 0.00000000 
0.05079730 0.02215610 0.00000000 
0.06202790 0.02186620 0.00000000 
0.07382310 0.02171360 0.00000000 
0.08581670 0.02156100 0.00000000 
0.09927520 0.02114900 0.00000000 
0.11267300 0.02078280 0.00000000 
0.12825200 0.02037080 0.00000000 
0.14367900 0.01966890 0.00000000 
0.16179100 0.01881440 0.00000000 
0.17970600 0.01800560 0.00000000 
0.20131200 0.01640340 0.00000000 
0.22307200 0.01504540 0.00000000 
0.24991200 0.01231400 0.00000000 
0.27692100 0.00985733 0.00000000 
0.30719500 0.00585946 0.00073243 
0.33792600 0.00205997 0.00233463 
0.37029100 0.00000000 0.00433356 
0.40236500 0.00000000 0.00617990 
0.43535500 0.00000000 0.00892653 
0.46846700 0.00000000 0.01142900 
0.50139600 0.00000000 0.01469440 
0.53466100 0.00000000 0.01779200 
0.56775800 0.00000000 0.02133210 
0.60091600 0.00000000 0.02490270 
0.63366100 0.00021363 0.02882430 
0.66665100 0.00036622 0.03286790 
0.69919900 0.00051881 0.03724730 
0.73177700 0.00065614 0.04170290 
0.76365300 0.00077821 0.04666210 
0.79554400 0.00091554 0.05148390 
0.82665800 0.00103761 0.05658050 
0.85775500 0.00114443 0.06181430 
0.88711400 0.00141909 0.06665140 
0.91635000 0.00163272 0.07162590 
0.92816100 0.00152590 0.07527280 
0.94001700 0.00172427 0.07936220 
0.94004700 0.00173953 0.08241400 
0.94007800 0.00177005 0.08560310 
0.94010800 0.00180056 0.08786140 
0.94012400 0.00181582 0.09033340 
0.94013900 0.00183108 0.09214920 
0.94013900 0.00184634 0.09394980 
0.94016900 0.00186160 0.09510950 
0.94018500 0.00187686 0.09640650 
0.94018500 0.00187686 0.09735260 
0.94018500 0.00187686 0.09831390 
0.94020000 0.00189212 0.09887850 
0.94020000 0.00189212 0.09944300 
0.94020000 0.00189212 0.09977870 
0.94020000 0.00189212 0.10011400 
0.94020000 0.00189212 0.10031300 
0.94020000 0.00190738 0.10049600 
0.94020000 0.00190738 0.10069400 
0.94020000 0.00190738 0.10087700 
0.94020000 0.00190738 0.10106100 
0.94021500 0.00190738 0.10125900 
0.94021500 0.00190738 0.10159500 
0.94021500 0.00190738 0.10188400 
0.00000000 0.03195240 0.00000000 
0.00000000 0.03189140 0.00000000 
0.00000000 0.03172350 0.00000000 
0.00683604 0.03176930 0.00000000 
0.01614400 0.03175400 0.00000000 
0.02673380 0.03167770 0.00000000 
0.03698790 0.03147940 0.00000000 
0.04867630 0.03141830 0.00000000 
0.06016630 0.03138780 0.00000000 
0.07219040 0.03099110 0.00000000 
0.08429080 0.03088430 0.00000000 
0.09805450 0.03059430 0.00000000 
0.11158900 0.03007550 0.00000000 
0.12738200 0.02964830 0.00000000 
0.14306900 0.02922100 0.00000000 
0.16110500 0.02815290 0.00000000 
0.17917100 0.02734420 0.00000000 
0.20085500 0.02571150 0.00000000 
0.22282700 0.02432290 0.00000000 
0.24965300 0.02168310 0.00000000 
0.27675300 0.01924160 0.00000000 
0.30707300 0.01522850 0.00018311 
0.33785000 0.01138320 0.00195315 
0.37018400 0.00749218 0.00369268 
0.40280800 0.00381476 0.00604257 
0.43549200 0.00117494 0.00846876 
0.46825400 0.00000000 0.01060500 
0.50118300 0.00000000 0.01387050 
0.53443200 0.00000000 0.01704430 
0.56754400 0.00000000 0.02047760 
0.60071700 0.00000000 0.02404820 
0.63347800 0.00019837 0.02795450 
0.66649900 0.00036622 0.03201340 
0.69903100 0.00051881 0.03639280 
0.73160900 0.00064088 0.04097050 
0.76351600 0.00077821 0.04580760 
0.79545300 0.00091554 0.05062940 
0.82653500 0.00100710 0.05592430 
0.85764900 0.00114443 0.06100560 
0.88702200 0.00143435 0.06590370 
0.91624300 0.00161746 0.07092390 
0.92811500 0.00152590 0.07458610 
0.94000200 0.00170901 0.07876710 
0.94004700 0.00173953 0.08175780 
0.94006300 0.00177005 0.08497750 
0.94009300 0.00180056 0.08723580 
0.94010800 0.00181582 0.08972310 
0.94012400 0.00183108 0.09155410 
0.94013900 0.00183108 0.09338520 
0.94015400 0.00184634 0.09468220 
0.94016900 0.00186160 0.09588770 
0.94018500 0.00187686 0.09681850 
0.94018500 0.00187686 0.09773400 
0.94018500 0.00187686 0.09831390 
0.94020000 0.00189212 0.09887850 
0.94020000 0.00189212 0.09922940 
0.94020000 0.00189212 0.09959560 
0.94020000 0.00189212 0.09977870 
0.94020000 0.00189212 0.09997710 
0.94020000 0.00189212 0.10016000 
0.94020000 0.00189212 0.10035900 
0.94020000 0.00190738 0.10054200 
0.94020000 0.00190738 0.10074000 
0.94020000 0.00190738 0.10106100 
0.94021500 0.00190738 0.10139600 
0.00000000 0.04147400 0.00000000 
0.00000000 0.04138250 0.00000000 
0.00000000 0.04119940 0.00000000 
0.00447089 0.04101630 0.00000000 
0.01359580 0.04106200 0.00000000 
0.02423130 0.04103150 0.00000000 
0.03465320 0.04077210 0.00000000 
0.04635690 0.04072630 0.00000000 
0.05828950 0.04065000 0.00000000 
0.07051190 0.04042120 0.00000000 
0.08274970 0.04019230 0.00000000 
0.09671170 0.03991760 0.00000000 
0.11056700 0.03944460 0.00000000 
0.12645200 0.03895630 0.00000000 
0.14245800 0.03851380 0.00000000 
0.16051000 0.03744560 0.00000000 
0.17866800 0.03666740 0.00000000 
0.20054900 0.03517200 0.00000000 
0.22258300 0.03358510 0.00000000 
0.24959200 0.03118940 0.00000000 
0.27660000 0.02862590 0.00000000 
0.30727100 0.02465860 0.00000000 
0.33777400 0.02070650 0.00146487 
0.37032100 0.01533530 0.00331121 
0.40259400 0.00968948 0.00517281 
0.43550800 0.00418097 0.00788891 
0.46802500 0.00000000 0.00990310 
0.50096900 0.00000000 0.01303120 
0.53420300 0.00000000 0.01620510 
0.56731500 0.00000000 0.01960780 
0.60051900 0.00000000 0.02319370 
0.63329500 0.00019837 0.02710000 
0.66634600 0.00035096 0.03114370 
0.69887800 0.00051881 0.03553830 
0.73145600 0.00064088 0.04011600 
0.76339400 0.00077821 0.04495310 
0.79534600 0.00090028 0.04977490 
0.82644400 0.00100710 0.05508510 
0.85754200 0.00114443 0.06019680 
0.88693100 0.00144961 0.06517130 
0.91613600 0.00161746 0.07020680 
0.92805400 0.00151064 0.07389940 
0.94000200 0.00169375 0.07809570 
0.94004700 0.00173953 0.08111700 
0.94006300 0.00175479 0.08436710 
0.94009300 0.00178531 0.08671700 
0.94010800 0.00180056 0.08909740 
0.94012400 0.00181582 0.09095900 
0.94013900 0.00183108 0.09282060 
0.94013900 0.00184634 0.09419390 
0.94016900 0.00186160 0.09535360 
0.94018500 0.00187686 0.09626920 
0.94018500 0.00187686 0.09716950 
0.94018500 0.00187686 0.09773400 
0.94018500 0.00187686 0.09831390 
0.94020000 0.00189212 0.09869540 
0.94020000 0.00189212 0.09907680 
0.94020000 0.00189212 0.09925990 
0.94020000 0.00189212 0.09944300 
0.94020000 0.00189212 0.09964140 
0.94020000 0.00189212 0.09983980 
0.94020000 0.00189212 0.10002300 
0.94020000 0.00189212 0.10020600 
0.94020000 0.00190738 0.10054200 
0.94020000 0.00190738 0.10087700 
0.00000000 0.05163650 0.00000000 
0.00000000 0.05154500 0.00000000 
0.00000000 0.05140760 0.00000000 
0.00302129 0.05111770 0.00000000 
0.01098650 0.05108720 0.00000000 
0.02143890 0.05113300 0.00000000 
0.03202870 0.05111770 0.00000000 
0.04371710 0.05088880 0.00000000 
0.05569540 0.05087360 0.00000000 
0.06836040 0.05082780 0.00000000 
0.08090330 0.05049210 0.00000000 
0.09526210 0.05023270 0.00000000 
0.10951400 0.05000380 0.00000000 
0.12547500 0.04934770 0.00000000 
0.14149700 0.04898150 0.00000000 
0.15979200 0.04795910 0.00000000 
0.17831700 0.04718090 0.00000000 
0.20030500 0.04580760 0.00000000 
0.22218700 0.04435800 0.00000000 
0.24937800 0.04193180 0.00000000 
0.27644800 0.03944460 0.00000000 
0.30722500 0.03564510 0.00000000 
0.33772800 0.03161670 0.00088502 
0.37047400 0.02616920 0.00308232 
0.40283800 0.02053860 0.00471504 
0.43552300 0.01432820 0.00724804 
0.46845200 0.00805676 0.00972000 
0.50119800 0.00378424 0.01243610 
0.53420300 0.00000000 0.01541160 
0.56722400 0.00000000 0.01869230 
0.60030500 0.00000000 0.02214080 
0.63309700 0.00018311 0.02609290 
0.66614800 0.00035096 0.03015180 
0.69868000 0.00050355 0.03453120 
0.73124300 0.00062562 0.03906310 
0.76321000 0.00076295 0.04390020 
0.79517800 0.00088502 0.04887460 
0.82627600 0.00100710 0.05409320 
0.85738900 0.00112917 0.05923550 
0.88679300 0.00146487 0.06451510 
0.91598400 0.00161746 0.06939800 
0.92797700 0.00151064 0.07310600 
0.94000200 0.00169375 0.07733270 
0.94003200 0.00173953 0.08035400 
0.94006300 0.00175479 0.08360420 
0.94007800 0.00177005 0.08612190 
0.94010800 0.00180056 0.08842600 
0.94012400 0.00181582 0.09028760 
0.94013900 0.00183108 0.09214920 
0.94013900 0.00183108 0.09352250 
0.94015400 0.00184634 0.09480430 
0.94016900 0.00186160 0.09561300 
0.94016900 0.00187686 0.09654380 
0.94018500 0.00187686 0.09712370 
0.94018500 0.00187686 0.09768830 
0.94018500 0.00189212 0.09806970 
0.94018500 0.00189212 0.09845120 
0.94018500 0.00189212 0.09864960 
0.94020000 0.00189212 0.09883270 
0.94020000 0.00189212 0.09900050 
0.94020000 0.00189212 0.09916840 
0.94020000 0.00189212 0.09938200 
0.94020000 0.00189212 0.09959560 
0.94020000 0.00189212 0.09991610 
0.94020000 0.00189212 0.10025200 
0.00000000 0.06178380 0.00000000 
0.00000000 0.06163120 0.00000000 
0.00000000 0.06149390 0.00000000 
0.00143435 0.06132600 0.00000000 
0.00805676 0.06123450 0.00000000 
0.01866180 0.06124970 0.00000000 
0.02925150 0.06126500 0.00000000 
0.04109250 0.06105130 0.00000000 
0.05316240 0.06108190 0.00000000 
0.06642250 0.06099030 0.00000000 
0.07933170 0.06076140 0.00000000 
0.09379720 0.06051730 0.00000000 
0.10826300 0.06037990 0.00000000 
0.12433100 0.05978480 0.00000000 
0.14073400 0.05938810 0.00000000 
0.15904500 0.05854890 0.00000000 
0.17766100 0.05778590 0.00000000 
0.19986300 0.05650420 0.00000000 
0.22192700 0.05505460 0.00000000 
0.24911900 0.05281150 0.00000000 
0.27638700 0.05021740 0.00000000 
0.30708800 0.04654000 0.00000000 
0.33785000 0.04246590 0.00048829 
0.37045900 0.03707940 0.00254826 
0.40293000 0.03144880 0.00413520 
0.43555400 0.02447550 0.00662242 
0.46846700 0.01742580 0.00901808 
0.50122800 0.00878920 0.01164260 
0.53400500 0.00004578 0.01438930 
0.56711700 0.00000000 0.01800560 
0.60010700 0.00000000 0.02108800 
0.63286800 0.00016785 0.02525370 
0.66593400 0.00033570 0.02914470 
0.69845100 0.00048829 0.03369190 
0.73104400 0.00062562 0.03801020 
0.76302700 0.00076295 0.04284730 
0.79501000 0.00086976 0.04788280 
0.82612300 0.00099184 0.05308610 
0.85723700 0.00112917 0.05828950 
0.88665600 0.00148013 0.06366060 
0.91583100 0.00160220 0.06857400 
0.92788600 0.00151064 0.07234300 
0.94000200 0.00169375 0.07656980 
0.94003200 0.00172427 0.07965210 
0.94006300 0.00175479 0.08284120 
0.94007800 0.00177005 0.08540470 
0.94010800 0.00180056 0.08776990 
0.94012400 0.00181582 0.08961620 
0.94012400 0.00181582 0.09147780 
0.94013900 0.00183108 0.09286640 
0.94013900 0.00184634 0.09423970 
0.94016900 0.00186160 0.09503320 
0.94016900 0.00187686 0.09593350 
0.94016900 0.00187686 0.09649810 
0.94018500 0.00187686 0.09707790 
0.94018500 0.00187686 0.09744410 
0.94018500 0.00187686 0.09782560 
0.94018500 0.00189212 0.09802400 
0.94018500 0.00187686 0.09820710 
0.94018500 0.00187686 0.09835970 
0.94018500 0.00189212 0.09849700 
0.94020000 0.00189212 0.09874110 
0.94020000 0.00189212 0.09897000 
0.94020000 0.00189212 0.09930570 
0.94020000 0.00189212 0.09964140 
0.00000000 0.07267870 0.00000000 
0.00000000 0.07252610 0.00000000 
0.00000000 0.07237350 0.00000000 
0.00000000 0.07223620 0.00000000 
0.00418097 0.07205310 0.00000000 
0.01467920 0.07212940 0.00000000 
0.02523840 0.07217520 0.00000000 
0.03747620 0.07220570 0.00000000 
0.04943920 0.07199210 0.00000000 
0.06308080 0.07199210 0.00000000 
0.07661550 0.07188530 0.00000000 
0.09140150 0.07161060 0.00000000 
0.10632500 0.07148850 0.00000000 
0.12277400 0.07095440 0.00000000 
0.13945200 0.07066450 0.00000000 
0.15793100 0.06987110 0.00000000 
0.17682200 0.06927600 0.00000000 
0.19908400 0.06829940 0.00000000 
0.22128600 0.06700240 0.00000000 
0.24870700 0.06492710 0.00000000 
0.27617300 0.06277560 0.00000000 
0.30687400 0.05926600 0.00000000 
0.33791100 0.05593960 0.00045777 
0.37035200 0.05073620 0.00198367 
0.40312800 0.04574650 0.00372320 
0.43584300 0.03889520 0.00601205 
0.46880300 0.03192190 0.00842298 
0.50139600 0.02301060 0.01101700 
0.53417300 0.01434350 0.01364160 
0.56717800 0.00918593 0.01707480 
0.60007600 0.00376898 0.02001980 
0.63303600 0.00212100 0.02430760 
0.66562900 0.00033570 0.02775620 
0.69819200 0.00047303 0.03233390 
0.73084600 0.00061036 0.03668270 
0.76281400 0.00074769 0.04164190 
0.79479700 0.00085450 0.04655530 
0.82592500 0.00099184 0.05177390 
0.85705300 0.00114443 0.05702300 
0.88647300 0.00146487 0.06243990 
0.91567900 0.00160220 0.06742960 
0.92779400 0.00148013 0.07144270 
0.93998600 0.00167849 0.07553220 
0.94001700 0.00170901 0.07881280 
0.94004700 0.00173953 0.08189520 
0.94006300 0.00175479 0.08445870 
0.94009300 0.00178531 0.08686960 
0.94010800 0.00180056 0.08870070 
0.94012400 0.00181582 0.09057760 
0.94012400 0.00183108 0.09198140 
0.94013900 0.00183108 0.09338520 
0.94015400 0.00184634 0.09431600 
0.94016900 0.00186160 0.09506370 
0.94016900 0.00186160 0.09561300 
0.94018500 0.00187686 0.09622340 
0.94018500 0.00187686 0.09658960 
0.94018500 0.00187686 0.09697110 
0.94018500 0.00187686 0.09716950 
0.94018500 0.00187686 0.09735260 
0.94018500 0.00187686 0.09752040 
0.94018500 0.00187686 0.09768830 
0.94018500 0.00187686 0.09790190 
0.94018500 0.00189212 0.09811550 
0.94018500 0.00189212 0.09848170 
0.94020000 0.00189212 0.09883270 
0.00000000 0.08349740 0.00000000 
0.00000000 0.08334480 0.00000000 
0.00000000 0.08319220 0.00000000 
0.00000000 0.08317690 0.00000000 
0.00064088 0.08308540 0.00000000 
0.01094070 0.08291750 0.00000000 
0.02159150 0.08297860 0.00000000 
0.03376820 0.08305490 0.00000000 
0.04570080 0.08290230 0.00000000 
0.06007480 0.08285650 0.00000000 
0.07425040 0.08288700 0.00000000 
0.08926530 0.08259710 0.00000000 
0.10450900 0.08256660 0.00000000 
0.12103500 0.08220030 0.00000000 
0.13801800 0.08201720 0.00000000 
0.15706100 0.08143740 0.00000000 
0.17583000 0.08082700 0.00000000 
0.19833700 0.07989620 0.00000000 
0.22079800 0.07888910 0.00000000 
0.24806600 0.07704280 0.00000000 
0.27594400 0.07533380 0.00007630 
0.30687400 0.07222100 0.00032044 
0.33780400 0.06944380 0.00067140 
0.37050400 0.06462200 0.00164797 
0.40337200 0.06005950 0.00311284 
0.43601100 0.05317770 0.00534066 
0.46897100 0.04621960 0.00762951 
0.50176200 0.03750670 0.01043720 
0.53453900 0.02882430 0.01306170 
0.56717800 0.01841760 0.01608300 
0.60012200 0.00790417 0.01910430 
0.63268500 0.00399786 0.02282750 
0.66532400 0.00032044 0.02636760 
0.69793200 0.00045777 0.03097580 
0.73063200 0.00061036 0.03533990 
0.76260000 0.00073243 0.04039060 
0.79459800 0.00085450 0.04521250 
0.82571100 0.00097658 0.05046160 
0.85687000 0.00114443 0.05598540 
0.88629000 0.00146487 0.06123450 
0.91551100 0.00158694 0.06628520 
0.92771800 0.00148013 0.07034410 
0.93998600 0.00167849 0.07447930 
0.94000200 0.00170901 0.07782100 
0.94004700 0.00173953 0.08093390 
0.94006300 0.00175479 0.08351260 
0.94007800 0.00177005 0.08607610 
0.94010800 0.00180056 0.08776990 
0.94010800 0.00181582 0.08966200 
0.94012400 0.00181582 0.09109640 
0.94013900 0.00183108 0.09253070 
0.94013900 0.00183108 0.09343100 
0.94013900 0.00184634 0.09433130 
0.94015400 0.00184634 0.09485010 
