bk/imgapp/glyphixcube.cube
TITLE "Generated by GuoyuanCode Glyphix"
LUT_3D_SIZE 9
0.00000000 0.00000000 0.00000000 
0.06791790 0.00000000 0.00000000 
0.18135300 0.00000000 0.00000000 
0.40346400 0.00000000 0.00906386 
0.66729200 0.00039674 0.03561460 
0.91668600 0.00166323 0.07380790 
0.94016900 0.00186160 0.09564360 
0.94021500 0.00190738 0.10188400 
0.94024600 0.00193790 0.10351700 
0.00000000 0.06178380 0.00000000 
0.05316240 0.06108190 0.00000000 
0.17766100 0.05778590 0.00000000 
0.40293000 0.03144880 0.00413520 
0.66593400 0.00033570 0.02914470 
0.91583100 0.00160220 0.06857400 
0.94012400 0.00181582 0.09147780 
0.94018500 0.00187686 0.09782560 
0.94020000 0.00189212 0.09964140 
0.00062562 0.17288500 0.00062562 
0.00068666 0.17227400 0.00068666 
0.15959400 0.17264100 0.00303655 
0.40131200 0.16517900 0.00588998 
0.66855900 0.13460000 0.01538110 
0.91584600 0.04812700 0.05221640 
0.94000200 0.00169375 0.07714960 
0.94006300 0.00175479 0.08436710 
0.94007800 0.00177005 0.08642710 
0.01075760 0.39040200 0.01075760 
0.01074240 0.39011200 0.01074240 
0.01084920 0.38953200 0.01084920 
0.36769700 0.39133300 0.01646450 
0.66028800 0.38442100 0.01928740 
0.91920300 0.36807800 0.02009610 
0.95780900 0.35349100 0.01950100 
0.95762600 0.34876000 0.01931790 
0.95751900 0.34715800 0.01921110 
0.02023350 0.64612800 0.02023350 
0.02023350 0.64602100 0.02021820 
0.02021820 0.64562400 0.02021820 
0.18921200 0.64722700 0.02352940 
0.61294000 0.64988200 0.03114370 
0.89895500 0.64506000 0.03443960 
0.97352600 0.63947500 0.03521780 
0.97340400 0.63720100 0.03509580 
0.97331200 0.63659100 0.03500420 
0.02858010 0.88952500 0.02858010 
0.02858010 0.88952500 0.02858010 
0.02862590 0.88926500 0.02862590 
0.02862590 0.88807500 0.02862590 
0.50048100 0.89649800 0.03990230 
0.84792900 0.89710800 0.04577710 
0.98576300 0.89495700 0.04745560 
0.98577900 0.89367500 0.04747080 
0.98584000 0.89333900 0.04753190 
0.03202870 0.97032100 0.03201340 
0.03202870 0.97032100 0.03201340 
0.03202870 0.97032100 0.03201340 
0.03202870 0.97032100 0.03201340 
0.36234100 0.97897300 0.04066530 
0.79742100 0.98768600 0.04937820 
0.97795100 0.99035600 0.05206380 
0.99067700 0.99066200 0.05236900 
0.99067700 0.99066200 0.05236900 
0.03202870 0.97032100 0.03201340 
0.03202870 0.97032100 0.03201340 
0.03202870 0.97032100 0.03201340 
0.03202870 0.97032100 0.03201340 
0.29457500 0.97726400 0.03897150 
0.77892700 0.98750300 0.04921030 
0.96458400 0.99035600 0.05204850 
0.99067700 0.99066200 0.05236900 
0.99067700 0.99066200 0.05236900 
0.03202870 0.97032100 0.03201340 
0.03202870 0.97032100 0.03201340 
0.03202870 0.97032100 0.03201340 
0.03202870 0.97032100 0.03201340 
0.26962700 0.97666900 0.03836120 
0.77326600 0.98736600 0.04905780 
0.96064700 0.99023400 0.05194170 
0.99067700 0.99066200 0.05236900 
0.99067700 0.99066200 0.05236900 
0.00000000 0.00000000 0.05041580 
0.06454570 0.00000000 0.05204850 
0.18017900 0.00000000 0.05554280 
0.40347900 0.00000000 0.06686500 
0.66720100 0.00061036 0.08694590 
0.91656400 0.00175479 0.11218400 
0.94021500 0.00190738 0.12802300 
0.94024600 0.00195315 0.13257000 
0.94026100 0.00195315 0.13398900 
0.00000000 0.04957660 0.04719620 
0.04870680 0.04870680 0.04870680 
0.17589100 0.04483100 0.05217060 
0.40218200 0.01794460 0.06248570 
0.66585800 0.00054933 0.08239870 
0.91572400 0.00170901 0.10858300 
0.94021500 0.00190738 0.12481900 
0.94021500 0.00190738 0.12964100 
0.94023000 0.00192264 0.13107500 
0.00093080 0.16836800 0.03305100 
0.00090028 0.16777300 0.03358510 
0.15770200 0.16795600 0.03729310 
0.40088500 0.16015900 0.04954600 
0.66825400 0.12822200 0.07309070 
0.91520600 0.03443960 0.09826810 
0.94030700 0.00201419 0.11470200 
0.94026100 0.00195315 0.11970700 
0.94024600 0.00193790 0.12120200 
0.01092550 0.38884600 0.01092550 
0.01091020 0.38855600 0.01091020 
0.01087970 0.38774700 0.01087970 
0.36682700 0.38947100 0.01617460 
0.65992200 0.38252800 0.01921110 
0.91895900 0.36612500 0.02357520 
0.95805300 0.35164400 0.05401690 
0.95796100 0.34702100 0.06373690 
0.95790000 0.34543400 0.06669720 
0.02020290 0.64531900 0.02020290 
0.02020290 0.64510600 0.02020290 
0.02018770 0.64480000 0.02018770 
0.18748800 0.64629600 0.02340730 
0.61251200 0.64895100 0.03109790 
0.89872600 0.64412900 0.03439380 
0.97346500 0.63843700 0.03515680 
0.97325100 0.63630100 0.03494320 
0.97314400 0.63561500 0.03485160 
0.02865640 0.88909700 0.02865640 
0.02867170 0.88900600 0.02865640 
0.02865640 0.88879200 0.02865640 
0.02859540 0.88755600 0.02859540 
0.50005300 0.89587200 0.03985660 
0.84770000 0.89657400 0.04574650 
0.98573300 0.89443800 0.04744030 
0.98585500 0.89324800 0.04754710 
0.98590100 0.89291200 0.04760810 
0.03202870 0.97032100 0.03201340 
0.03202870 0.97032100 0.03201340 
0.03202870 0.97032100 0.03201340 
0.03202870 0.97032100 0.03201340 
0.36176100 0.97892700 0.04061950 
0.79717700 0.98765500 0.04936290 
0.97775200 0.99035600 0.05204850 
0.99067700 0.99066200 0.05236900 
0.99067700 0.99066200 0.05236900 
0.03202870 0.97032100 0.03201340 
0.03202870 0.97032100 0.03201340 
0.03202870 0.97032100 0.03201340 
0.03202870 0.97032100 0.03201340 
0.29376700 0.97720300 0.03889520 
0.77872900 0.98750300 0.04919510 
0.96438500 0.99034100 0.05204850 
0.99067700 0.99066200 0.05236900 
0.99067700 0.99066200 0.05236900 
0.03202870 0.97032100 0.03201340 
0.03202870 0.97032100 0.03201340 
0.03202870 0.97032100 0.03201340 
0.03202870 0.97032100 0.03201340 
0.26855900 0.97663800 0.03833070 
0.77306800 0.98736600 0.04905780 
0.96043300 0.99023400 0.05192650 
0.99067700 0.99066200 0.05236900 
0.99067700 0.99066200 0.05236900 
0.00000000 0.00000000 0.15150700 
0.05362020 0.00000000 0.15278900 
0.17633300 0.00000000 0.15507700 
0.40250200 0.00000000 0.16197500 
0.66697200 0.00128176 0.17286900 
0.91662500 0.00230411 0.18686200 
0.94081000 0.00251774 0.19656700 
0.94085600 0.00254826 0.19939000 
0.94085600 0.00254826 0.20025900 
0.00000000 0.00694286 0.14999600 
0.03321890 0.00567636 0.15077400 
0.16981800 0.00212100 0.15339900 
0.39998500 0.00000000 0.15945700 
0.66575100 0.00134279 0.17058100 
0.91589200 0.00236515 0.18484800 
0.94079500 0.00250248 0.19456800 
0.94082600 0.00251774 0.19762000 
0.94084100 0.00253300 0.19839800 
0.00076295 0.15297200 0.14915700 
0.00062562 0.15233100 0.14929400 
0.15233100 0.15233100 0.15233100 
0.39914500 0.14311400 0.15880100 
0.66689600 0.10518000 0.16830700 
0.91355800 0.00227359 0.17818000 
0.94074900 0.00244144 0.18831200 
0.94078000 0.00247196 0.19140900 
0.94078000 0.00248722 0.19218700 
0.01115430 0.38378000 0.10881200 
0.01115430 0.38359700 0.10917800 
0.01112380 0.38280300 0.11029200 
0.36528600 0.38439000 0.12114100 
0.65954100 0.37747800 0.13711800 
0.91917300 0.36087600 0.15722900 
0.95867900 0.34602900 0.16971100 
0.95826700 0.34091700 0.17303700 
0.95817500 0.33931500 0.17418200 
0.01994350 0.64254200 0.01994350 
0.01994350 0.64243500 0.01994350 
0.01995880 0.64205400 0.01995880 
0.18216200 0.64338100 0.02316320 
0.61139900 0.64631100 0.03096060 
0.89805400 0.64142800 0.03431750 
0.97314400 0.63550800 0.03483630 
0.97302200 0.63321900 0.03472950 
0.97299200 0.63260900 0.03469900 
0.02859540 0.88734300 0.02859540 
0.02859540 0.88723600 0.02858010 
0.02858010 0.88703700 0.02858010 
0.02845810 0.88581700 0.02845810 
0.49849700 0.89405700 0.03974980 
0.84683000 0.89474300 0.04547190 
0.98590100 0.89280500 0.04760810 
0.98584000 0.89144700 0.04754710 
0.98582400 0.89103500 0.04751660 
0.03202870 0.97032100 0.03201340 
0.03202870 0.97032100 0.03201340 
0.03202870 0.97032100 0.03201340 
0.03202870 0.97032100 0.03201340 
0.35942600 0.97886600 0.04055850 
0.79655100 0.98762500 0.04933240 
0.97723400 0.99034100 0.05204850 
0.99067700 0.99066200 0.05236900 
0.99067700 0.99066200 0.05236900 
0.03202870 0.97032100 0.03201340 
0.03202870 0.97032100 0.03201340 
0.03202870 0.97032100 0.03201340 
0.03202870 0.97032100 0.03201340 
0.29057800 0.97711100 0.03881900 
0.77792000 0.98748800 0.04919510 
0.96397300 0.99031100 0.05201800 
0.99067700 0.99066200 0.05236900 
0.99067700 0.99066200 0.05236900 
0.03202870 0.97032100 0.03201340 
0.03202870 0.97032100 0.03201340 
0.03202870 0.97032100 0.03201340 
0.03202870 0.97032100 0.03201340 
0.26497300 0.97654700 0.03823910 
0.77225900 0.98735000 0.04904250 
0.95983800 0.99021900 0.05192650 
0.99067700 0.99066200 0.05236900 
0.99067700 0.99066200 0.05236900 
0.00000000 0.00000000 0.34929400 
0.00000000 0.00000000 0.34940100 
0.15219300 0.00000000 0.35211700 
0.39520900 0.00000000 0.35695400 
0.66413400 0.00245670 0.36253900 
0.91526700 0.00344854 0.36907000 
0.94186300 0.00355535 0.37314400 
0.94186300 0.00357061 0.37447200 
0.94187800 0.00357061 0.37486800 
0.00000000 0.00000000 0.34845500 
0.00000000 0.00000000 0.34854700 
0.14363300 0.00000000 0.35097300 
0.39249300 0.00000000 0.35596200 
0.66282100 0.00242618 0.36182200 
0.91451900 0.00343328 0.36818500 
0.94186300 0.00355535 0.37227400 
0.94186300 0.00355535 0.37361700 
0.94186300 0.00357061 0.37399900 
0.00000000 0.00813306 0.34644100 
0.00000000 0.00642405 0.34654800 
0.11372500 0.00248722 0.34848600 
0.38437500 0.00000000 0.35317000 
0.65862500 0.00238041 0.35898400 
0.91200100 0.00340276 0.36530100 
0.94181700 0.00352483 0.36971100 
0.94184800 0.00354009 0.37084000 
0.94184800 0.00354009 0.37122100 
0.01150530 0.35526100 0.34822600 
0.01150530 0.35495500 0.34828700 
0.01147480 0.35407000 0.34847000 
0.35500100 0.35500100 0.35500100 
0.65502400 0.34659300 0.36153200 
0.91618200 0.32741300 0.36798700 
0.95796100 0.30994100 0.37149600 
0.95776300 0.30411200 0.37262500 
0.95761000 0.30232700 0.37294600 
0.02197300 0.63071600 0.31415300 
0.02192720 0.63051800 0.31426000 
0.02192720 0.63012100 0.31453400 
0.15381100 0.63062500 0.31870000 
0.60830100 0.63415000 0.33160900 
0.89718500 0.62917500 0.34190900 
0.97557000 0.62317800 0.34782900 
0.97549400 0.62105700 0.34937100 
0.97547900 0.62044700 0.34981300 
0.03012130 0.88018600 0.22029500 
0.03012130 0.88018600 0.22049300 
0.03006030 0.87991100 0.22099600 
0.02993820 0.87872100 0.22371300 
0.49305000 0.88688500 0.24210000 
0.84542600 0.88781600 0.25894600 
0.98768600 0.88577100 0.26916900 
0.98764000 0.88433700 0.27167200 
0.98762500 0.88392500 0.27241900 
0.03202870 0.97032100 0.03201340 
0.03202870 0.97032100 0.03201340 
0.03202870 0.97032100 0.03201340 
0.03202870 0.97032100 0.03201340 
0.34767700 0.97879000 0.06297400 
0.79365200 0.98840300 0.11162000 
0.97576900 0.99145500 0.13846000 
0.99163800 0.99162300 0.14534200 
0.99166900 0.99166900 0.14705100 
0.03202870 0.97032100 0.03201340 
0.03202870 0.97032100 0.03201340 
0.03202870 0.97032100 0.03201340 
0.03202870 0.97032100 0.03201340 
0.27417400 0.97680600 0.03849850 
0.77421200 0.98739600 0.04908830 
0.96134900 0.99025000 0.05194170 
0.99067700 0.99066200 0.05236900 
0.99067700 0.99066200 0.05236900 
0.03202870 0.97032100 0.03201340 
0.03202870 0.97032100 0.03201340 
0.03202870 0.97032100 0.03201340 
0.03202870 0.97032100 0.03201340 
0.24591400 0.97587500 0.03758300 
0.76832200 0.98728900 0.04898150 
0.95710700 0.99018800 0.05188070 
0.99067700 0.99066200 0.05236900 
0.99067700 0.99066200 0.05236900 
0.00000000 0.00000000 0.58321500 
0.00000000 0.00000000 0.58321500 
0.04296940 0.00000000 0.58419200 
0.37273200 0.00096132 0.58988300 
0.65384900 0.00349432 0.59418600 
0.90930000 0.00456245 0.59781800 
0.94299200 0.00469978 0.60015300 
0.94299200 0.00469978 0.60083900 
0.94299200 0.00469978 0.60103800 
0.00000000 0.00000000 0.58272700 
0.00000000 0.00000000 0.58272700 
0.02127110 0.00000000 0.58358100 
0.36983300 0.00091554 0.58934900 
0.65246100 0.00347906 0.59368300 
0.90849200 0.00454719 0.59751300 
0.94299200 0.00468452 0.59966400 
0.94299200 0.00468452 0.60035100 
0.94299200 0.00468452 0.60054900 
0.00000000 0.00000000 0.58124700 
0.00000000 0.00000000 0.58133800 
0.00000000 0.00000000 0.58144500 
0.36073900 0.00074769 0.58780800 
0.64846300 0.00340276 0.59212600 
0.90606500 0.00447089 0.59604800 
0.94299200 0.00468452 0.59818400 
0.94299200 0.00468452 0.59887100 
0.94299200 0.00468452 0.59916100 
0.00793469 0.25311700 0.58678600 
0.00790417 0.25261300 0.58677000 
0.00784314 0.25133100 0.58690800 
0.32132400 0.24928700 0.59212600 
0.63859000 0.23334100 0.59646000 
0.90310500 0.19726900 0.59885600 
0.95111000 0.16119600 0.59919100 
0.95028600 0.14750900 0.59903900 
0.95004200 0.14302300 0.59899300 
0.02232390 0.59235500 0.58133800 
0.02232390 0.59215700 0.58143000 
0.02230870 0.59174500 0.58150600 
0.02223240 0.58951700 0.58211600 
0.59473600 0.59473600 0.59473600 
0.88950900 0.58869300 0.60082400 
0.97541800 0.58214700 0.60401300 
0.97528000 0.57956800 0.60465400 
0.97523500 0.57874400 0.60480700 
0.03202870 0.85880800 0.55614600 
0.03204390 0.85871700 0.55623700 
0.03205920 0.85854900 0.55632900 
0.03195240 0.85738900 0.55680200 
0.47538000 0.86485100 0.56969600 
0.83851400 0.86585800 0.57924800 
0.98954800 0.86366100 0.58373400 
0.98968500 0.86242500 0.58466500 
0.98967000 0.86199700 0.58483300 
0.03715570 0.97546400 0.53147200 
0.03715570 0.97546400 0.53154800 
0.03717100 0.97546400 0.53171600 
0.03717100 0.97547900 0.53249400 
0.31790600 0.98289500 0.54213800 
0.78849500 0.99275200 0.55556600 
0.97302200 0.99551400 0.56083000 
0.99578900 0.99578900 0.56195900 
0.99578900 0.99578900 0.56215800 
0.03704890 0.97534100 0.52161400 
0.03704890 0.97534100 0.52161400 
0.03703360 0.97534100 0.52179800 
0.03704890 0.97535700 0.52268300 
0.22707000 0.98025500 0.52958000 
0.76917700 0.99218700 0.54517400 
0.95918200 0.99508700 0.55080500 
0.99568200 0.99568200 0.55211700 
0.99568200 0.99568200 0.55240700 
0.03701840 0.97531100 0.51848600 
0.03701840 0.97531100 0.51848600 
0.03701840 0.97532600 0.51868500 
0.03701840 0.97532600 0.51957000 
0.18728900 0.97918700 0.52564300 
0.76336300 0.99224800 0.54224500 
0.95491000 0.99499500 0.54779900 
0.99563600 0.99563600 0.54931000 
0.99563600 0.99563600 0.54959900 
0.00000000 0.00000000 0.80625600 
0.00000000 0.00000000 0.80634800 
0.00000000 0.00000000 0.80634800 
0.32939700 0.00099184 0.81202400 
0.63532500 0.00390631 0.81603700 
0.89837500 0.00508125 0.81899800 
0.94366400 0.00535592 0.82058400 
0.94366400 0.00537118 0.82107300 
0.94366400 0.00535592 0.82118000 
0.00000000 0.00000000 0.80602700 
0.00000000 0.00000000 0.80610400 
0.00000000 0.00000000 0.80610400 
0.32593300 0.00093080 0.81167300 
0.63393600 0.00390631 0.81573200 
0.89758100 0.00508125 0.81870800 
0.94366400 0.00535592 0.82037100 
0.94366400 0.00535592 0.82078300 
0.94366400 0.00535592 0.82087400 
0.00000000 0.00000000 0.80526400 
0.00000000 0.00000000 0.80526400 
0.00000000 0.00000000 0.80537100 
0.31519000 0.00070192 0.81062000 
0.62960200 0.00399786 0.81483200 
0.89488100 0.00506600 0.81768500 
0.94366400 0.00535592 0.81937900 
0.94366400 0.00535592 0.81988300 
0.94366400 0.00535592 0.81997400 
0.00000000 0.00000000 0.80048800 
0.00000000 0.00000000 0.80058000 
0.00000000 0.00000000 0.80067100 
0.25059900 0.00000000 0.80508100 
0.60708000 0.00379950 0.81019300 
0.88189500 0.00512703 0.81330600 
0.94363300 0.00532540 0.81490800 
0.94363300 0.00534066 0.81533500 
0.94363300 0.00534066 0.81541200 
0.02059970 0.51747900 0.81315300 
0.02059970 0.51737200 0.81315300 
0.02056920 0.51676200 0.81321400 
0.02029450 0.51410700 0.81344300 
0.56815400 0.51691500 0.82415500 
0.87356400 0.50861400 0.82888500 
0.97193900 0.50014500 0.83091500 
0.97160300 0.49701700 0.83108300 
0.97189300 0.49590300 0.83099100 
0.03179980 0.81811200 0.80338800 
0.03178450 0.81800600 0.80346400 
0.03178450 0.81770000 0.80344900 
0.03172350 0.81635800 0.80386100 
0.43978000 0.82276600 0.81513700 
0.82377400 0.82377400 0.82377400 
0.98912000 0.82159100 0.82751200 
0.98904400 0.82002000 0.82793900 
0.98901300 0.81950100 0.82801600 
0.03860530 0.97239600 0.79354500 
0.03862060 0.97230500 0.79356100 
0.03865110 0.97213700 0.79369800 
0.03865110 0.97105400 0.79420200 
0.24585300 0.97361700 0.80054900 
0.77343400 0.98059100 0.81377900 
0.96229500 0.97967500 0.81803600 
0.99670400 0.97901900 0.81896700 
0.99667400 0.97860700 0.81904300 
0.03884950 0.97715700 0.78822000 
0.03884950 0.97715700 0.78822000 
0.03884950 0.97715700 0.78832700 
0.03884950 0.97715700 0.78883000 
0.05035480 0.97763000 0.79049400 
0.75428400 0.99386600 0.80872800 
0.94926400 0.99685700 0.81330600 
0.99766500 0.99766500 0.81460300 
0.99766500 0.99766500 0.81471000 
0.03883420 0.97712700 0.78664800 
0.03883420 0.97712700 0.78664800 
0.03883420 0.97714200 0.78672500 
0.03884950 0.97714200 0.78712100 
0.03884950 0.97715700 0.78832700 
0.74827200 0.99375900 0.80691200 
0.94511300 0.99673500 0.81149000 
0.99533100 0.99762000 0.81286300 
0.99765000 0.99765000 0.81310700 
0.00000000 0.00000000 0.93153300 
0.00000000 0.00000000 0.93153300 
0.00000000 0.00000000 0.93162400 
0.28915800 0.00077821 0.93649200 
0.62037100 0.00433356 0.94096300 
0.88946400 0.00537118 0.94348100 
0.94404500 0.00575265 0.94404500 
0.94404500 0.00575265 0.94404500 
0.94404500 0.00575265 0.94404500 
0.00000000 0.00000000 0.93133400 
0.00000000 0.00000000 0.93133400 
0.00000000 0.00000000 0.93142600 
0.28517600 0.00067140 0.93618700 
0.61887500 0.00433356 0.94074900 
0.88856300 0.00537118 0.94319100 
0.94404500 0.00575265 0.94404500 
0.94404500 0.00575265 0.94404500 
0.94404500 0.00575265 0.94404500 
0.00000000 0.00000000 0.93066300 
0.00000000 0.00000000 0.93066300 
0.00000000 0.00000000 0.93075500 
0.27222100 0.00041199 0.93527100 
0.61432800 0.00430304 0.93992500 
0.88610700 0.00532540 0.94244300 
0.94404500 0.00575265 0.94395400 
0.94404500 0.00575265 0.94404500 
0.94404500 0.00575265 0.94404500 
0.00000000 0.00000000 0.92698600 
0.00000000 0.00000000 0.92698600 
0.00000000 0.00000000 0.92707700 
0.18881500 0.00000000 0.93051000 
0.59073800 0.00398260 0.93608000 
0.87269400 0.00541695 0.93901000 
0.94403000 0.00572213 0.94027600 
0.94404500 0.00573739 0.94058100 
0.94404500 0.00573739 0.94067300 
0.01792940 0.44589900 0.93885700 
0.01792940 0.44570100 0.93885700 
0.01789880 0.44509000 0.93891800 
0.01757840 0.44174900 0.93901000 
0.54496100 0.44205400 0.94850100 
0.85922000 0.43045700 0.95246800 
0.96754400 0.41930300 0.95413100 
0.96736100 0.41544200 0.95436000 
0.96728500 0.41422100 0.95437600 
0.03120470 0.78345900 0.93563700 
0.03118940 0.78335200 0.93562200 
0.03118940 0.78315400 0.93571400 
0.03112840 0.78159800 0.93606500 
0.40828600 0.78707600 0.94605900 
0.81129200 0.78796100 0.95475700 
0.98715200 0.78558000 0.95843400 
0.98817400 0.78393200 0.95878500 
0.98815900 0.78339800 0.95884600 
0.03831540 0.94622700 0.92971700 
0.03830010 0.94612000 0.92970200 
0.03830010 0.94590700 0.92979300 
0.03823910 0.94476200 0.93003700 
0.15223900 0.94483900 0.93394400 
0.75999100 0.95358200 0.94895900 
0.95291100 0.95291100 0.95291100 
0.99610900 0.95219300 0.95368900 
0.99617000 0.95185800 0.95382600 
0.03979550 0.97810300 0.92706200 
0.03979550 0.97810300 0.92706200 
0.03979550 0.97810300 0.92716900 
0.03979550 0.97810300 0.92756500 
0.03981080 0.97811900 0.92832800 
0.74177200 0.99459800 0.94630300 
0.94068800 0.99708600 0.95048400 
0.99156200 0.99678000 0.95165900 
0.99850500 0.99662800 0.95190400 
0.03979550 0.97808800 0.92576500 
0.03979550 0.97808800 0.92576500 
0.03979550 0.97808800 0.92585600 
0.03979550 0.97808800 0.92626800 
0.03979550 0.97810300 0.92716900 
0.73554600 0.99467500 0.94509800 
0.93655300 0.99748200 0.94909600 
0.98759400 0.99836700 0.95037800 
0.99838300 0.99838300 0.95048400 
0.00000000 0.00000000 0.93450800 
0.00000000 0.00000000 0.93450800 
0.00000000 0.00000000 0.93450800 
0.27454000 0.00045777 0.93876600 
0.61512200 0.00431830 0.94261100 
0.88642700 0.00535592 0.94364800 
0.94404500 0.00575265 0.94404500 
0.94404500 0.00575265 0.94404500 
0.94404500 0.00575265 0.94404500 
0.00000000 0.00000000 0.93450800 
0.00000000 0.00000000 0.93450800 
0.00000000 0.00000000 0.93450800 
0.27039000 0.00035096 0.93865900 
0.61364200 0.00430304 0.94261100 
0.88575600 0.00531014 0.94361800 
0.94404500 0.00575265 0.94404500 
0.94404500 0.00575265 0.94404500 
0.94404500 0.00575265 0.94404500 
0.00000000 0.00000000 0.93450800 
0.00000000 0.00000000 0.93450800 
0.00000000 0.00000000 0.93450800 
0.25659600 0.00033570 0.93864300 
0.60927700 0.00422675 0.94251900 
0.88307000 0.00529488 0.94360300 
0.94404500 0.00575265 0.94404500 
0.94404500 0.00575265 0.94404500 
0.94404500 0.00575265 0.94404500 
0.00000000 0.00000000 0.93450800 
0.00000000 0.00000000 0.93450800 
0.00000000 0.00000000 0.93450800 
0.16319500 0.00000000 0.93704100 
0.58562600 0.00410468 0.94241200 
0.86971800 0.00538643 0.94369400 
0.94404500 0.00575265 0.94404500 
0.94404500 0.00575265 0.94404500 
0.94404500 0.00575265 0.94404500 
0.01663230 0.41947100 0.95494000 
0.01661710 0.41927200 0.95492500 
0.01658660 0.41857000 0.95489400 
0.01667810 0.41510600 0.95497100 
0.53720900 0.41429800 0.96311900 
0.85423100 0.40102200 0.96545400 
0.96574300 0.38857100 0.96574300 
0.96528600 0.38396300 0.96528600 
0.96520900 0.38265000 0.96520900 
0.03097580 0.77193900 0.96926800 
0.03099110 0.77186200 0.96928400 
0.03100630 0.77160300 0.96931400 
0.03082320 0.77013800 0.96911600 
0.39762000 0.77503600 0.97798100 
0.80715700 0.77601300 0.98529000 
0.98399300 0.77363200 0.98773200 
0.98773200 0.77193900 0.98774700 
0.98771600 0.77142000 0.98771600 
0.03802550 0.93743800 0.96655200 
0.03802550 0.93734600 0.96655200 
0.03801020 0.93713300 0.96664400 
0.03796440 0.93598800 0.96688800 
0.09843600 0.93485900 0.96928400 
0.75574900 0.94486900 0.98567200 
0.94959900 0.94387700 0.98939500 
0.99603300 0.94340400 0.99052400 
0.99601700 0.94309900 0.99060000 
0.04013120 0.97843900 0.96482800 
0.04013120 0.97843900 0.96482800 
0.04013120 0.97843900 0.96482800 
0.04014650 0.97845400 0.96524000 
0.04011600 0.97772200 0.96609400 
0.73736200 0.98968500 0.98356600 
0.93785000 0.98899800 0.98751800 
0.98847900 0.98847900 0.98847900 
0.99824500 0.98826600 0.98875400 
0.04013120 0.97843900 0.96353100 
0.04013120 0.97843900 0.96353100 
0.04013120 0.97843900 0.96363800 
0.04013120 0.97843900 0.96403400 
0.04014650 0.97843900 0.96493500 
0.73116700 0.99461400 0.98248300 
0.93376100 0.99777200 0.98666400 
0.98504600 0.99845900 0.98757900 
0.99867200 0.99867200 0.98790000 
0.00000000 0.00000000 0.93450800 
0.00000000 0.00000000 0.93450800 
0.00000000 0.00000000 0.93450800 
0.27010000 0.00035096 0.93864300 
0.61355000 0.00430304 0.94259600 
0.88566400 0.00531014 0.94361800 
0.94404500 0.00575265 0.94404500 
0.94404500 0.00575265 0.94404500 
0.94404500 0.00575265 0.94404500 
0.00000000 0.00000000 0.93450800 
0.00000000 0.00000000 0.93450800 
0.00000000 0.00000000 0.93450800 
0.26573600 0.00044251 0.93873500 
0.61234500 0.00424201 0.94255000 
0.88487100 0.00531014 0.94361800 
0.94404500 0.00575265 0.94404500 
0.94404500 0.00575265 0.94404500 
0.94404500 0.00575265 0.94404500 
0.00000000 0.00000000 0.93450800 
0.00000000 0.00000000 0.93450800 
0.00000000 0.00000000 0.93450800 
0.25169800 0.00021363 0.93852100 
0.60769100 0.00421149 0.94251900 
0.88217000 0.00529488 0.94360300 
0.94404500 0.00575265 0.94404500 
0.94404500 0.00575265 0.94404500 
0.94404500 0.00575265 0.94404500 
0.00000000 0.00000000 0.93450800 
0.00000000 0.00000000 0.93450800 
0.00000000 0.00000000 0.93450800 
0.15489400 0.00000000 0.93710200 
0.58397800 0.00415045 0.94244300 
0.86881800 0.00538643 0.94369400 
0.94404500 0.00575265 0.94404500 
0.94404500 0.00575265 0.94404500 
0.94404500 0.00575265 0.94404500 
0.01632720 0.41117000 0.95463500 
0.01631190 0.41097100 0.95462000 
0.01628140 0.41026900 0.95458900 
0.01611350 0.40647000 0.95442100 
0.53479800 0.40550900 0.96266100 
0.85256700 0.39151600 0.96467500 
0.96519400 0.37863700 0.96519400 
0.96473600 0.37402900 0.96473600 
0.96464500 0.37261000 0.96464500 
0.03074690 0.76849000 0.96905500 
0.03074690 0.76838300 0.96905500 
0.03073170 0.76806300 0.96903900 
0.03067060 0.76652200 0.96897800 
0.39404900 0.77137400 0.97756900 
0.80590500 0.77232000 0.98513800 
0.98307800 0.76972600 0.98750300 
0.98754900 0.76818500 0.98754900 
0.98751800 0.76766600 0.98751800 
0.03797970 0.93481300 0.97628700 
0.03797970 0.93470700 0.97628700 
0.03796440 0.93449300 0.97627200 
0.03775080 0.93341000 0.97605900 
0.07553220 0.93159400 0.97720300 
0.75419200 0.94215300 0.99240100 
0.94862300 0.94120700 0.99522400 
0.99595600 0.94064200 0.99595600 
0.99594100 0.94033700 0.99594100 
0.04003970 0.97834700 0.97526500 
0.04003970 0.97834700 0.97526500 
0.04003970 0.97834700 0.97526500 
0.04010070 0.97799600 0.97572300 
0.04008540 0.97521900 0.97660800 
0.73591200 0.98713700 0.99414100 
0.93679700 0.98646500 0.99742100 
0.98735000 0.98600700 0.99783300 
0.99803200 0.98580900 0.99803200 
0.04003970 0.97834700 0.97422700 
0.04003970 0.97834700 0.97428900 
0.04003970 0.97834700 0.97428900 
0.04003970 0.97834700 0.97459400 
0.04003970 0.97834700 0.97537200 
0.72996100 0.99469000 0.99310300 
0.93293700 0.99784800 0.99736000 
0.98422200 0.99842800 0.99833700 
0.99876400 0.99876400 0.99876400 
